X:185
T:the Scottish Horse
R:Jig
M:6/8
L:1/8
K:A % 3 sharps
a/2b/2|"A"c3 ecA|"D"def a2f|"A"edc cAe|"E"B3 B2A/2B/2|\
"A"c3 ecA|"D"def afd|"A"ecA "E7"B2e|"A"(A3A2'):||\
e|"A"a2e A2e|"D"d2f a2f|"A"edc cAe|"E"B3 B2A/2B/2|"A"c3 ecA|\
"D"def a2f|"A"ecA "E7"B2e|"A"(A3 A2)e|"A"a2e A2e|"D"d2f a2f|\
"A"edc "F#m"cAe |"Bm"B3 "E"B2e/2d/2|"A"c2a e2a|"D"F2"a d2f|"A"ecA "E7"B2e|"A"A3-A2||

%  <A name="D1X186"></A>
